images/50097926.svg

<?xml version="1.0" encoding="UTF-8"?>
<svg xmlns="http://www.w3.org/2000/svg" xmlns:xlink="http://www.w3.org/1999/xlink" width="300pt" height="300pt" viewBox="0 0 300 300" version="1.1">
<defs>
<g>
<symbol overflow="visible" id="glyph0-0">
<path style="stroke:none;" d="M 0.453125 1.59375 L 0.453125 -6.34375 L 4.953125 -6.34375 L 4.953125 1.59375 Z M 0.953125 1.09375 L 4.453125 1.09375 L 4.453125 -5.84375 L 0.953125 -5.84375 Z M 0.953125 1.09375 "/>
</symbol>
<symbol overflow="visible" id="glyph0-1">
<path style="stroke:none;" d="M 5.796875 -6.0625 L 5.796875 -5.125 C 5.492188 -5.394531 5.171875 -5.597656 4.828125 -5.734375 C 4.492188 -5.878906 4.140625 -5.953125 3.765625 -5.953125 C 3.015625 -5.953125 2.4375 -5.722656 2.03125 -5.265625 C 1.632812 -4.804688 1.4375 -4.144531 1.4375 -3.28125 C 1.4375 -2.414062 1.632812 -1.753906 2.03125 -1.296875 C 2.4375 -0.835938 3.015625 -0.609375 3.765625 -0.609375 C 4.140625 -0.609375 4.492188 -0.675781 4.828125 -0.8125 C 5.171875 -0.945312 5.492188 -1.15625 5.796875 -1.4375 L 5.796875 -0.5 C 5.484375 -0.289062 5.15625 -0.132812 4.8125 -0.03125 C 4.46875 0.0703125 4.097656 0.125 3.703125 0.125 C 2.710938 0.125 1.929688 -0.175781 1.359375 -0.78125 C 0.785156 -1.394531 0.5 -2.226562 0.5 -3.28125 C 0.5 -4.332031 0.785156 -5.160156 1.359375 -5.765625 C 1.929688 -6.378906 2.710938 -6.6875 3.703125 -6.6875 C 4.097656 -6.6875 4.46875 -6.632812 4.8125 -6.53125 C 5.164062 -6.425781 5.492188 -6.269531 5.796875 -6.0625 Z M 5.796875 -6.0625 "/>
</symbol>
<symbol overflow="visible" id="glyph0-2">
<path style="stroke:none;" d="M 0.84375 -6.84375 L 1.65625 -6.84375 L 1.65625 0 L 0.84375 0 Z M 0.84375 -6.84375 "/>
</symbol>
<symbol overflow="visible" id="glyph0-3">
<path style="stroke:none;" d="M 0.890625 -6.5625 L 2.078125 -6.5625 L 4.984375 -1.078125 L 4.984375 -6.5625 L 5.84375 -6.5625 L 5.84375 0 L 4.65625 0 L 1.75 -5.484375 L 1.75 0 L 0.890625 0 Z M 0.890625 -6.5625 "/>
</symbol>
<symbol overflow="visible" id="glyph0-4">
<path style="stroke:none;" d="M 0.890625 -6.5625 L 1.765625 -6.5625 L 1.765625 -3.875 L 5 -3.875 L 5 -6.5625 L 5.890625 -6.5625 L 5.890625 0 L 5 0 L 5 -3.125 L 1.765625 -3.125 L 1.765625 0 L 0.890625 0 Z M 0.890625 -6.5625 "/>
</symbol>
</g>
</defs>
<g id="surface21329">
<rect x="0" y="0" width="300" height="300" style="fill:rgb(100%,100%,100%);fill-opacity:1;stroke:none;"/>
<path style="fill:none;stroke-width:1.2;stroke-linecap:butt;stroke-linejoin:miter;stroke:rgb(0%,80%,0%);stroke-opacity:1;stroke-miterlimit:10;" d="M 264.75 164.695312 L 257.398438 157.085938 "/>
<path style="fill:none;stroke-width:1.2;stroke-linecap:butt;stroke-linejoin:miter;stroke:rgb(0%,0%,0%);stroke-opacity:1;stroke-miterlimit:10;" d="M 257.398438 157.085938 L 250.050781 149.472656 "/>
<path style=" stroke:none;fill-rule:nonzero;fill:rgb(100%,100%,100%);fill-opacity:1;" d="M 259.75 159.195312 L 269.75 159.195312 L 269.75 170.195312 L 259.75 170.195312 Z M 259.75 159.195312 "/>
<g style="fill:rgb(0%,80%,0%);fill-opacity:1;">
  <use xlink:href="#glyph0-1" x="259.75" y="167.858398"/>
  <use xlink:href="#glyph0-2" x="266.263672" y="167.858398"/>
</g>
<path style="fill:none;stroke-width:1.2;stroke-linecap:butt;stroke-linejoin:miter;stroke:rgb(0%,0%,0%);stroke-opacity:1;stroke-miterlimit:10;" d="M 250.050781 149.472656 L 229.515625 154.589844 "/>
<path style="fill:none;stroke-width:1.2;stroke-linecap:butt;stroke-linejoin:miter;stroke:rgb(0%,0%,0%);stroke-opacity:1;stroke-miterlimit:10;" d="M 246.792969 145.152344 L 230.367188 149.246094 "/>
<path style="fill:none;stroke-width:1.2;stroke-linecap:butt;stroke-linejoin:miter;stroke:rgb(0%,0%,0%);stroke-opacity:1;stroke-miterlimit:10;" d="M 255.886719 129.128906 L 250.050781 149.472656 "/>
<path style="fill:none;stroke-width:1.2;stroke-linecap:butt;stroke-linejoin:miter;stroke:rgb(0%,0%,0%);stroke-opacity:1;stroke-miterlimit:10;" d="M 229.515625 154.589844 L 214.816406 139.367188 "/>
<path style="fill:none;stroke-width:1.2;stroke-linecap:butt;stroke-linejoin:miter;stroke:rgb(0%,0%,0%);stroke-opacity:1;stroke-miterlimit:10;" d="M 214.816406 139.367188 L 204.550781 141.925781 "/>
<path style="fill:none;stroke-width:1.2;stroke-linecap:butt;stroke-linejoin:miter;stroke:rgb(0%,0%,100%);stroke-opacity:1;stroke-miterlimit:10;" d="M 204.550781 141.925781 L 194.28125 144.484375 "/>
<path style="fill:none;stroke-width:1.2;stroke-linecap:butt;stroke-linejoin:miter;stroke:rgb(0%,0%,0%);stroke-opacity:1;stroke-miterlimit:10;" d="M 214.816406 139.367188 L 220.652344 119.023438 "/>
<path style="fill:none;stroke-width:1.2;stroke-linecap:butt;stroke-linejoin:miter;stroke:rgb(0%,0%,0%);stroke-opacity:1;stroke-miterlimit:10;" d="M 220.1875 138.703125 L 224.855469 122.429688 "/>
<path style="fill:none;stroke-width:1.2;stroke-linecap:butt;stroke-linejoin:miter;stroke:rgb(0%,0%,100%);stroke-opacity:1;stroke-miterlimit:10;" d="M 194.28125 144.484375 L 186.933594 136.871094 "/>
<path style="fill:none;stroke-width:1.2;stroke-linecap:butt;stroke-linejoin:miter;stroke:rgb(0%,0%,0%);stroke-opacity:1;stroke-miterlimit:10;" d="M 186.933594 136.871094 L 179.582031 129.261719 "/>
<path style=" stroke:none;fill-rule:nonzero;fill:rgb(100%,100%,100%);fill-opacity:1;" d="M 187.28125 138.984375 L 201.28125 138.984375 L 201.28125 149.984375 L 187.28125 149.984375 Z M 187.28125 138.984375 "/>
<g style="fill:rgb(0%,0%,100%);fill-opacity:1;">
  <use xlink:href="#glyph0-3" x="187.28125" y="147.647461"/>
  <use xlink:href="#glyph0-4" x="194.258789" y="147.647461"/>
</g>
<path style="fill:none;stroke-width:1.2;stroke-linecap:butt;stroke-linejoin:miter;stroke:rgb(0%,0%,0%);stroke-opacity:1;stroke-miterlimit:10;" d="M 179.582031 129.261719 L 159.046875 134.378906 "/>
<path style="fill:none;stroke-width:1.2;stroke-linecap:butt;stroke-linejoin:miter;stroke:rgb(0%,0%,0%);stroke-opacity:1;stroke-miterlimit:10;" d="M 159.046875 134.378906 L 155.082031 144.1875 "/>
<path style="fill:none;stroke-width:1.2;stroke-linecap:butt;stroke-linejoin:miter;stroke:rgb(0%,0%,100%);stroke-opacity:1;stroke-miterlimit:10;" d="M 155.082031 144.1875 L 151.121094 154 "/>
<path style="fill:none;stroke-width:1.2;stroke-linecap:butt;stroke-linejoin:miter;stroke:rgb(0%,0%,100%);stroke-opacity:1;stroke-miterlimit:10;" d="M 142.839844 120.773438 L 150.941406 127.574219 "/>
<path style="fill:none;stroke-width:1.2;stroke-linecap:butt;stroke-linejoin:miter;stroke:rgb(0%,0%,0%);stroke-opacity:1;stroke-miterlimit:10;" d="M 150.941406 127.574219 L 159.046875 134.378906 "/>
<path style="fill:none;stroke-width:1.2;stroke-linecap:butt;stroke-linejoin:miter;stroke:rgb(0%,0%,100%);stroke-opacity:1;stroke-miterlimit:10;" d="M 141.257812 125.949219 L 147.742188 131.390625 "/>
<path style="fill:none;stroke-width:1.2;stroke-linecap:butt;stroke-linejoin:miter;stroke:rgb(0%,0%,0%);stroke-opacity:1;stroke-miterlimit:10;" d="M 147.742188 131.390625 L 154.226562 136.832031 "/>
<path style="fill:none;stroke-width:1.2;stroke-linecap:butt;stroke-linejoin:miter;stroke:rgb(0%,0%,100%);stroke-opacity:1;stroke-miterlimit:10;" d="M 151.121094 154 L 140.5625 153.261719 "/>
<path style="fill:none;stroke-width:1.2;stroke-linecap:butt;stroke-linejoin:miter;stroke:rgb(0%,0%,0%);stroke-opacity:1;stroke-miterlimit:10;" d="M 140.5625 153.261719 L 130.007812 152.519531 "/>
<path style=" stroke:none;fill-rule:nonzero;fill:rgb(100%,100%,100%);fill-opacity:1;" d="M 144.121094 148.5 L 158.121094 148.5 L 158.121094 159.5 L 144.121094 159.5 Z M 144.121094 148.5 "/>
<g style="fill:rgb(0%,0%,100%);fill-opacity:1;">
  <use xlink:href="#glyph0-3" x="144.121094" y="157.163086"/>
  <use xlink:href="#glyph0-4" x="151.098633" y="157.163086"/>
</g>
<path style="fill:none;stroke-width:1.2;stroke-linecap:butt;stroke-linejoin:miter;stroke:rgb(0%,0%,0%);stroke-opacity:1;stroke-miterlimit:10;" d="M 130.007812 152.519531 L 124.890625 131.988281 "/>
<path style="fill:none;stroke-width:1.2;stroke-linecap:butt;stroke-linejoin:miter;stroke:rgb(0%,0%,0%);stroke-opacity:1;stroke-miterlimit:10;" d="M 134.328125 149.261719 L 130.234375 132.835938 "/>
<path style="fill:none;stroke-width:1.2;stroke-linecap:butt;stroke-linejoin:miter;stroke:rgb(0%,0%,0%);stroke-opacity:1;stroke-miterlimit:10;" d="M 130.007812 152.519531 L 116.402344 168.730469 "/>
<path style="fill:none;stroke-width:1.2;stroke-linecap:butt;stroke-linejoin:miter;stroke:rgb(0%,0%,0%);stroke-opacity:1;stroke-miterlimit:10;" d="M 124.890625 131.988281 L 133.863281 126.378906 "/>
<path style="fill:none;stroke-width:1.2;stroke-linecap:butt;stroke-linejoin:miter;stroke:rgb(0%,0%,100%);stroke-opacity:1;stroke-miterlimit:10;" d="M 133.863281 126.378906 L 142.839844 120.773438 "/>
<path style="fill:none;stroke-width:1.2;stroke-linecap:butt;stroke-linejoin:miter;stroke:rgb(0%,0%,0%);stroke-opacity:1;stroke-miterlimit:10;" d="M 124.890625 131.988281 L 105.269531 124.058594 "/>
<path style=" stroke:none;fill-rule:nonzero;fill:rgb(100%,100%,100%);fill-opacity:1;" d="M 139.839844 115.273438 L 146.839844 115.273438 L 146.839844 126.273438 L 139.839844 126.273438 Z M 139.839844 115.273438 "/>
<g style="fill:rgb(0%,0%,100%);fill-opacity:1;">
  <use xlink:href="#glyph0-3" x="139.839844" y="123.936523"/>
</g>
<path style="fill:none;stroke-width:1.2;stroke-linecap:butt;stroke-linejoin:miter;stroke:rgb(0%,0%,0%);stroke-opacity:1;stroke-miterlimit:10;" d="M 105.269531 124.058594 L 102.324219 103.101562 "/>
<path style="fill:none;stroke-width:1.2;stroke-linecap:butt;stroke-linejoin:miter;stroke:rgb(0%,0%,0%);stroke-opacity:1;stroke-miterlimit:10;" d="M 105.269531 124.058594 L 88.59375 137.085938 "/>
<path style="fill:none;stroke-width:1.2;stroke-linecap:butt;stroke-linejoin:miter;stroke:rgb(0%,0%,0%);stroke-opacity:1;stroke-miterlimit:10;" d="M 100.535156 121.4375 L 87.195312 131.859375 "/>
<path style="fill:none;stroke-width:1.2;stroke-linecap:butt;stroke-linejoin:miter;stroke:rgb(0%,0%,0%);stroke-opacity:1;stroke-miterlimit:10;" d="M 102.324219 103.101562 L 82.703125 95.171875 "/>
<path style="fill:none;stroke-width:1.2;stroke-linecap:butt;stroke-linejoin:miter;stroke:rgb(0%,0%,0%);stroke-opacity:1;stroke-miterlimit:10;" d="M 98.496094 106.925781 L 82.800781 100.582031 "/>
<path style="fill:none;stroke-width:1.2;stroke-linecap:butt;stroke-linejoin:miter;stroke:rgb(0%,0%,0%);stroke-opacity:1;stroke-miterlimit:10;" d="M 82.703125 95.171875 L 66.027344 108.199219 "/>
<path style="fill:none;stroke-width:1.2;stroke-linecap:butt;stroke-linejoin:miter;stroke:rgb(0%,0%,0%);stroke-opacity:1;stroke-miterlimit:10;" d="M 66.027344 108.199219 L 67.5 118.675781 "/>
<path style="fill:none;stroke-width:1.2;stroke-linecap:butt;stroke-linejoin:miter;stroke:rgb(0%,0%,100%);stroke-opacity:1;stroke-miterlimit:10;" d="M 67.5 118.675781 L 68.972656 129.15625 "/>
<path style="fill:none;stroke-width:1.2;stroke-linecap:butt;stroke-linejoin:miter;stroke:rgb(0%,0%,100%);stroke-opacity:1;stroke-miterlimit:10;" d="M 45.1875 104.523438 L 55.605469 106.359375 "/>
<path style="fill:none;stroke-width:1.2;stroke-linecap:butt;stroke-linejoin:miter;stroke:rgb(0%,0%,0%);stroke-opacity:1;stroke-miterlimit:10;" d="M 55.605469 106.359375 L 66.027344 108.199219 "/>
<path style="fill:none;stroke-width:1.2;stroke-linecap:butt;stroke-linejoin:miter;stroke:rgb(0%,0%,100%);stroke-opacity:1;stroke-miterlimit:10;" d="M 46.40625 109.792969 L 54.742188 111.265625 "/>
<path style="fill:none;stroke-width:1.2;stroke-linecap:butt;stroke-linejoin:miter;stroke:rgb(0%,0%,0%);stroke-opacity:1;stroke-miterlimit:10;" d="M 54.742188 111.265625 L 63.078125 112.734375 "/>
<path style="fill:none;stroke-width:1.2;stroke-linecap:butt;stroke-linejoin:miter;stroke:rgb(0%,0%,100%);stroke-opacity:1;stroke-miterlimit:10;" d="M 68.972656 129.15625 L 49.949219 138.429688 "/>
<path style="fill:none;stroke-width:1.2;stroke-linecap:butt;stroke-linejoin:miter;stroke:rgb(0%,0%,100%);stroke-opacity:1;stroke-miterlimit:10;" d="M 68.972656 129.15625 L 78.78125 133.121094 "/>
<path style="fill:none;stroke-width:1.2;stroke-linecap:butt;stroke-linejoin:miter;stroke:rgb(0%,0%,0%);stroke-opacity:1;stroke-miterlimit:10;" d="M 78.78125 133.121094 L 88.59375 137.085938 "/>
<path style=" stroke:none;fill-rule:nonzero;fill:rgb(100%,100%,100%);fill-opacity:1;" d="M 65.972656 123.65625 L 72.972656 123.65625 L 72.972656 134.65625 L 65.972656 134.65625 Z M 65.972656 123.65625 "/>
<g style="fill:rgb(0%,0%,100%);fill-opacity:1;">
  <use xlink:href="#glyph0-3" x="65.972656" y="132.319336"/>
</g>
<path style="fill:none;stroke-width:1.2;stroke-linecap:butt;stroke-linejoin:miter;stroke:rgb(0%,0%,100%);stroke-opacity:1;stroke-miterlimit:10;" d="M 49.949219 138.429688 L 42.601562 130.820312 "/>
<path style="fill:none;stroke-width:1.2;stroke-linecap:butt;stroke-linejoin:miter;stroke:rgb(0%,0%,0%);stroke-opacity:1;stroke-miterlimit:10;" d="M 42.601562 130.820312 L 35.25 123.207031 "/>
<path style="fill:none;stroke-width:1.2;stroke-linecap:butt;stroke-linejoin:miter;stroke:rgb(0%,0%,100%);stroke-opacity:1;stroke-miterlimit:10;" d="M 52.0625 133.449219 L 46.183594 127.359375 "/>
<path style="fill:none;stroke-width:1.2;stroke-linecap:butt;stroke-linejoin:miter;stroke:rgb(0%,0%,0%);stroke-opacity:1;stroke-miterlimit:10;" d="M 46.183594 127.359375 L 40.300781 121.269531 "/>
<path style=" stroke:none;fill-rule:nonzero;fill:rgb(100%,100%,100%);fill-opacity:1;" d="M 46.949219 132.929688 L 53.949219 132.929688 L 53.949219 143.929688 L 46.949219 143.929688 Z M 46.949219 132.929688 "/>
<g style="fill:rgb(0%,0%,100%);fill-opacity:1;">
  <use xlink:href="#glyph0-3" x="46.949219" y="141.592773"/>
</g>
<path style="fill:none;stroke-width:1.2;stroke-linecap:butt;stroke-linejoin:miter;stroke:rgb(0%,0%,0%);stroke-opacity:1;stroke-miterlimit:10;" d="M 35.25 123.207031 L 40.21875 113.863281 "/>
<path style="fill:none;stroke-width:1.2;stroke-linecap:butt;stroke-linejoin:miter;stroke:rgb(0%,0%,100%);stroke-opacity:1;stroke-miterlimit:10;" d="M 40.21875 113.863281 L 45.1875 104.523438 "/>
<path style=" stroke:none;fill-rule:nonzero;fill:rgb(100%,100%,100%);fill-opacity:1;" d="M 42.1875 99.023438 L 49.1875 99.023438 L 49.1875 110.023438 L 42.1875 110.023438 Z M 42.1875 99.023438 "/>
<g style="fill:rgb(0%,0%,100%);fill-opacity:1;">
  <use xlink:href="#glyph0-3" x="42.1875" y="107.686523"/>
</g>
<path style="fill:none;stroke-width:1.2;stroke-linecap:butt;stroke-linejoin:miter;stroke:rgb(0%,0%,0%);stroke-opacity:1;stroke-miterlimit:10;" d="M 116.402344 168.730469 L 105.984375 166.894531 "/>
<path style="fill:none;stroke-width:1.2;stroke-linecap:butt;stroke-linejoin:miter;stroke:rgb(0%,0%,100%);stroke-opacity:1;stroke-miterlimit:10;" d="M 105.984375 166.894531 L 95.5625 165.054688 "/>
<path style="fill:none;stroke-width:1.2;stroke-linecap:butt;stroke-linejoin:miter;stroke:rgb(0%,0%,0%);stroke-opacity:1;stroke-miterlimit:10;" d="M 113.453125 173.265625 L 105.117188 171.796875 "/>
<path style="fill:none;stroke-width:1.2;stroke-linecap:butt;stroke-linejoin:miter;stroke:rgb(0%,0%,100%);stroke-opacity:1;stroke-miterlimit:10;" d="M 105.117188 171.796875 L 96.78125 170.328125 "/>
<path style="fill:none;stroke-width:1.2;stroke-linecap:butt;stroke-linejoin:miter;stroke:rgb(0%,0%,0%);stroke-opacity:1;stroke-miterlimit:10;" d="M 123.640625 188.617188 L 116.402344 168.730469 "/>
<path style="fill:none;stroke-width:1.2;stroke-linecap:butt;stroke-linejoin:miter;stroke:rgb(0%,0%,100%);stroke-opacity:1;stroke-miterlimit:10;" d="M 95.5625 165.054688 L 88.761719 173.160156 "/>
<path style="fill:none;stroke-width:1.2;stroke-linecap:butt;stroke-linejoin:miter;stroke:rgb(0%,0%,0%);stroke-opacity:1;stroke-miterlimit:10;" d="M 88.761719 173.160156 L 81.957031 181.265625 "/>
<path style=" stroke:none;fill-rule:nonzero;fill:rgb(100%,100%,100%);fill-opacity:1;" d="M 92.5625 159.554688 L 99.5625 159.554688 L 99.5625 170.554688 L 92.5625 170.554688 Z M 92.5625 159.554688 "/>
<g style="fill:rgb(0%,0%,100%);fill-opacity:1;">
  <use xlink:href="#glyph0-3" x="92.5625" y="168.217773"/>
</g>
<path style="fill:none;stroke-width:1.2;stroke-linecap:butt;stroke-linejoin:miter;stroke:rgb(0%,0%,0%);stroke-opacity:1;stroke-miterlimit:10;" d="M 81.957031 181.265625 L 89.195312 201.152344 "/>
<path style="fill:none;stroke-width:1.2;stroke-linecap:butt;stroke-linejoin:miter;stroke:rgb(0%,0%,0%);stroke-opacity:1;stroke-miterlimit:10;" d="M 87.363281 181.550781 L 93.152344 197.460938 "/>
<path style="fill:none;stroke-width:1.2;stroke-linecap:butt;stroke-linejoin:miter;stroke:rgb(0%,0%,0%);stroke-opacity:1;stroke-miterlimit:10;" d="M 81.957031 181.265625 L 61.117188 177.589844 "/>
<path style="fill:none;stroke-width:1.2;stroke-linecap:butt;stroke-linejoin:miter;stroke:rgb(0%,0%,0%);stroke-opacity:1;stroke-miterlimit:10;" d="M 89.195312 201.152344 L 110.035156 204.828125 "/>
<path style="fill:none;stroke-width:1.2;stroke-linecap:butt;stroke-linejoin:miter;stroke:rgb(0%,0%,0%);stroke-opacity:1;stroke-miterlimit:10;" d="M 110.035156 204.828125 L 123.640625 188.617188 "/>
<path style="fill:none;stroke-width:1.2;stroke-linecap:butt;stroke-linejoin:miter;stroke:rgb(0%,0%,0%);stroke-opacity:1;stroke-miterlimit:10;" d="M 107.582031 200.007812 L 118.464844 187.039062 "/>
<path style="fill:none;stroke-width:1.2;stroke-linecap:butt;stroke-linejoin:miter;stroke:rgb(0%,0%,0%);stroke-opacity:1;stroke-miterlimit:10;" d="M 220.652344 119.023438 L 241.1875 113.90625 "/>
<path style="fill:none;stroke-width:1.2;stroke-linecap:butt;stroke-linejoin:miter;stroke:rgb(0%,0%,0%);stroke-opacity:1;stroke-miterlimit:10;" d="M 241.1875 113.90625 L 255.886719 129.128906 "/>
<path style="fill:none;stroke-width:1.2;stroke-linecap:butt;stroke-linejoin:miter;stroke:rgb(0%,0%,0%);stroke-opacity:1;stroke-miterlimit:10;" d="M 239.074219 118.886719 L 250.832031 131.066406 "/>
</g>
</svg>

<svg xmlns="http://www.w3.org/2000/svg" xmlns:xlink="http://www.w3.org/1999/xlink" width="300pt" height="300pt" viewBox="0 0 300 300"><defs><symbol overflow="visible"><path d="M.453 1.594v-7.938h4.5v7.938zm.5-.5h3.5v-6.938h-3.5zm0 0"/></symbol><symbol overflow="visible" id="a"><path d="M5.797-6.063v.938c-.305-.27-.625-.473-.97-.61-.335-.144-.686-.218-1.06-.218-.75 0-1.33.23-1.736.687-.397.46-.592 1.12-.592 1.985 0 .866.195 1.526.593 1.983.408.46.986.688 1.736.688.375 0 .726-.066 1.062-.203.344-.132.664-.343.97-.625V-.5c-.314.21-.642.367-.986.47-.343.1-.714.155-1.11.155-.99 0-1.772-.3-2.343-.906C.784-1.396.5-2.228.5-3.28c0-1.052.285-1.88.86-2.486.57-.613 1.35-.92 2.343-.92.395-.002.766.053 1.11.155.35.104.68.26.984.468zm0 0"/></symbol><symbol overflow="visible" id="b"><path d="M.844-6.844h.812V0H.844zm0 0"/></symbol><symbol overflow="visible" id="c"><path d="M.89-6.563H2.08l2.906 5.485v-5.484h.86V0H4.656L1.75-5.484V0H.89zm0 0"/></symbol><symbol overflow="visible" id="d"><path d="M.89-6.563h.876v2.688H5v-2.688h.89V0H5v-3.125H1.766V0H.89zm0 0"/></symbol></defs><g><path fill="#fff" d="M0 0h300v300H0z"/><path d="M264.75 164.695l-7.352-7.61" stroke-width="1.2" stroke="#0c0" stroke-miterlimit="10" fill="none"/><path d="M257.398 157.086l-7.347-7.613" stroke-width="1.2" stroke="#000" stroke-miterlimit="10" fill="none"/><path d="M259.75 159.195h10v11h-10zm0 0" fill="#fff"/><g fill="#0c0"><use xlink:href="#a" x="259.75" y="167.858"/><use xlink:href="#b" x="266.264" y="167.858"/></g><path d="M250.05 149.473l-20.534 5.117M246.793 145.152l-16.426 4.094M255.887 129.13l-5.836 20.343M229.516 154.59l-14.7-15.223M214.816 139.367l-10.265 2.56" stroke-width="1.2" stroke="#000" stroke-miterlimit="10" fill="none"/><path d="M204.55 141.926l-10.27 2.558" stroke-width="1.2" stroke="#00f" stroke-miterlimit="10" fill="none"/><path d="M214.816 139.367l5.836-20.344M220.188 138.703l4.667-16.273" stroke-width="1.2" stroke="#000" stroke-miterlimit="10" fill="none"/><path d="M194.28 144.484l-7.346-7.613" stroke-width="1.2" stroke="#00f" stroke-miterlimit="10" fill="none"/><path d="M186.934 136.87l-7.352-7.608" stroke-width="1.2" stroke="#000" stroke-miterlimit="10" fill="none"/><path d="M187.28 138.984h14v11h-14zm0 0" fill="#fff"/><g fill="#00f"><use xlink:href="#c" x="187.281" y="147.647"/><use xlink:href="#d" x="194.259" y="147.647"/></g><path d="M179.582 129.262l-20.535 5.117M159.047 134.38l-3.965 9.808" stroke-width="1.2" stroke="#000" stroke-miterlimit="10" fill="none"/><path d="M155.082 144.188l-3.96 9.812M142.84 120.773l8.1 6.8" stroke-width="1.2" stroke="#00f" stroke-miterlimit="10" fill="none"/><path d="M150.94 127.574l8.107 6.805" stroke-width="1.2" stroke="#000" stroke-miterlimit="10" fill="none"/><path d="M141.258 125.95l6.484 5.44" stroke-width="1.2" stroke="#00f" stroke-miterlimit="10" fill="none"/><path d="M147.742 131.39l6.485 5.442" stroke-width="1.2" stroke="#000" stroke-miterlimit="10" fill="none"/><path d="M151.12 154l-10.558-.738" stroke-width="1.2" stroke="#00f" stroke-miterlimit="10" fill="none"/><path d="M140.563 153.262l-10.555-.742" stroke-width="1.2" stroke="#000" stroke-miterlimit="10" fill="none"/><path d="M144.12 148.5h14v11h-14zm0 0" fill="#fff"/><g fill="#00f"><use xlink:href="#c" x="144.121" y="157.163"/><use xlink:href="#d" x="151.099" y="157.163"/></g><path d="M130.008 152.52l-5.117-20.532M134.328 149.262l-4.094-16.426M130.008 152.52l-13.606 16.21M124.89 131.988l8.973-5.61" stroke-width="1.2" stroke="#000" stroke-miterlimit="10" fill="none"/><path d="M133.863 126.38l8.977-5.607" stroke-width="1.2" stroke="#00f" stroke-miterlimit="10" fill="none"/><path d="M124.89 131.988l-19.62-7.93" stroke-width="1.2" stroke="#000" stroke-miterlimit="10" fill="none"/><path d="M139.84 115.273h7v11h-7zm0 0" fill="#fff"/><use xlink:href="#c" x="139.84" y="123.937" fill="#00f"/><path d="M105.27 124.06l-2.946-20.958M105.27 124.06l-16.676 13.026M100.535 121.438l-13.34 10.42M102.324 103.102l-19.62-7.93M98.496 106.926L82.8 100.582M82.703 95.172L66.027 108.2M66.027 108.2l1.473 10.476" stroke-width="1.2" stroke="#000" stroke-miterlimit="10" fill="none"/><path d="M67.5 118.676l1.473 10.48M45.188 104.523l10.417 1.836" stroke-width="1.2" stroke="#00f" stroke-miterlimit="10" fill="none"/><path d="M55.605 106.36l10.422 1.84" stroke-width="1.2" stroke="#000" stroke-miterlimit="10" fill="none"/><path d="M46.406 109.793l8.336 1.473" stroke-width="1.2" stroke="#00f" stroke-miterlimit="10" fill="none"/><path d="M54.742 111.266l8.336 1.468" stroke-width="1.2" stroke="#000" stroke-miterlimit="10" fill="none"/><path d="M68.973 129.156L49.95 138.43M68.973 129.156l9.808 3.965" stroke-width="1.2" stroke="#00f" stroke-miterlimit="10" fill="none"/><path d="M78.78 133.12l9.814 3.966" stroke-width="1.2" stroke="#000" stroke-miterlimit="10" fill="none"/><path d="M65.973 123.656h7v11h-7zm0 0" fill="#fff"/><use xlink:href="#c" x="65.973" y="132.319" fill="#00f"/><path d="M49.95 138.43l-7.348-7.61" stroke-width="1.2" stroke="#00f" stroke-miterlimit="10" fill="none"/><path d="M42.602 130.82l-7.352-7.613" stroke-width="1.2" stroke="#000" stroke-miterlimit="10" fill="none"/><path d="M52.063 133.45l-5.88-6.09" stroke-width="1.2" stroke="#00f" stroke-miterlimit="10" fill="none"/><path d="M46.184 127.36l-5.883-6.09" stroke-width="1.2" stroke="#000" stroke-miterlimit="10" fill="none"/><path d="M46.95 132.93h7v11h-7zm0 0" fill="#fff"/><use xlink:href="#c" x="46.949" y="141.593" fill="#00f"/><path d="M35.25 123.207l4.97-9.344" stroke-width="1.2" stroke="#000" stroke-miterlimit="10" fill="none"/><path d="M40.22 113.863l4.968-9.34" stroke-width="1.2" stroke="#00f" stroke-miterlimit="10" fill="none"/><path d="M42.188 99.023h7v11h-7zm0 0" fill="#fff"/><use xlink:href="#c" x="42.188" y="107.687" fill="#00f"/><path d="M116.402 168.73l-10.418-1.835" stroke-width="1.2" stroke="#000" stroke-miterlimit="10" fill="none"/><path d="M105.984 166.895l-10.42-1.84" stroke-width="1.2" stroke="#00f" stroke-miterlimit="10" fill="none"/><path d="M113.453 173.266l-8.336-1.47" stroke-width="1.2" stroke="#000" stroke-miterlimit="10" fill="none"/><path d="M105.117 171.797l-8.336-1.47" stroke-width="1.2" stroke="#00f" stroke-miterlimit="10" fill="none"/><path d="M123.64 188.617l-7.238-19.887" stroke-width="1.2" stroke="#000" stroke-miterlimit="10" fill="none"/><path d="M95.563 165.055l-6.8 8.105" stroke-width="1.2" stroke="#00f" stroke-miterlimit="10" fill="none"/><path d="M88.762 173.16l-6.805 8.106" stroke-width="1.2" stroke="#000" stroke-miterlimit="10" fill="none"/><path d="M92.563 159.555h7v11h-7zm0 0" fill="#fff"/><use xlink:href="#c" x="92.563" y="168.218" fill="#00f"/><path d="M81.957 181.266l7.238 19.886M87.363 181.55l5.79 15.91M81.957 181.266l-20.84-3.676M89.195 201.152l20.84 3.676M110.035 204.828l13.606-16.21M107.582 200.008l10.883-12.97M220.652 119.023l20.536-5.117M241.188 113.906l14.7 15.223M239.074 118.887l11.758 12.18" stroke-width="1.2" stroke="#000" stroke-miterlimit="10" fill="none"/></g></svg>
